X: 45
M:C|
K:Gm
(Bd)Gd BG(dB)|AcFc AFcA|{A}G^FGA Bcde|fdcA (AG)G2:|
|:A2|B2{c}BA Bdfd|cdcB ABcA|G2g2 (g^fga)|bgg^f g2(ga)|
bag^f gdde|=fdcB AFFA|BAGF DGGA|BdcA G2 S:|


